seeds/icons/bicycle.svg

<?xml version="1.0" encoding="utf-8"?><!-- Uploaded to: SVG Repo, www.svgrepo.com, Generator: SVG Repo Mixer Tools -->
<svg width="1.5rem" height="1.5rem" viewBox="0 0 24 24" fill="none" xmlns="http://www.w3.org/2000/svg">
<path fill-rule="evenodd" clip-rule="evenodd" d="M12 3C11.4477 3 11 3.44772 11 4C11 4.55228 11.4477 5 12 5H13.5585C13.9889 5 14.3711 5.27543 14.5072 5.68377L15.2792 8H8.75009L8.00009 7C8.55233 6.99995 9 6.55226 9 6C9 5.44772 8.55228 5 8 5H5C4.44772 5 4 5.44772 4 6C4 6.55228 4.44772 7 5 7H5.50009L6.95959 8.94601C6.90736 9.0303 6.86098 9.11916 6.82112 9.21216L6.01107 11.1023C5.68453 11.0352 5.34638 11 5 11C2.23858 11 0 13.2386 0 16C0 18.7614 2.23858 21 5 21C7.76142 21 10 18.7614 10 16C10 15.8706 9.99509 15.7424 9.98544 15.6155L11.9679 15.0491C12.3671 14.9351 12.7209 14.6996 12.9802 14.3755L16.1032 10.4718L16.5019 11.6678C15.0063 12.5321 14 14.1485 14 16C14 18.7614 16.2386 21 19 21C21.7614 21 24 18.7614 24 16C24 13.2386 21.7614 11 19 11C18.7967 11 18.5963 11.0121 18.3993 11.0357L16.4045 5.05132C15.9962 3.82629 14.8498 3 13.5585 3H12ZM17.1458 13.5998L18.0513 16.3162C18.226 16.8402 18.7923 17.1233 19.3162 16.9487C19.8402 16.774 20.1233 16.2077 19.9487 15.6838L19.0432 12.9674C20.6983 12.9906 22.0329 14.3394 22.0329 16C22.0329 17.675 20.675 19.0329 19 19.0329C17.325 19.0329 15.9671 17.675 15.9671 16C15.9671 15.0233 16.4288 14.1545 17.1458 13.5998ZM7.84914 11.8906L8.32875 10.7715L10.3283 13.4376L9.43675 13.6923C9.06058 12.9706 8.51348 12.3521 7.84914 11.8906ZM10.2501 10L12.0255 12.3673L13.9193 10L10.2501 10ZM7.45806 14.2576C7.33518 14.0846 7.19448 13.9251 7.03865 13.7818L6.74774 14.4606L7.45806 14.2576ZM5.28731 16.9579C5.0705 17.023 4.83046 17.0153 4.60609 16.9191C4.09846 16.7016 3.86331 16.1137 4.08087 15.6061L5.2004 12.9938C5.13416 12.9895 5.06734 12.9873 5 12.9873C3.33612 12.9873 1.98728 14.3361 1.98728 16C1.98728 17.6639 3.33612 19.0127 5 19.0127C6.60321 19.0127 7.91394 17.7605 8.00739 16.1807L5.28731 16.9579Z" fill="#0F0F0F"/>
</svg>

<svg xmlns="http://www.w3.org/2000/svg" width="1.5rem" height="1.5rem" fill="none" viewBox="0 0 24 24"><path fill="#0F0F0F" fill-rule="evenodd" d="M12 3a1 1 0 1 0 0 2h1.559a1 1 0 0 1 .948.684L15.28 8H8.75L8 7a1 1 0 0 0 0-2H5a1 1 0 0 0 0 2h.5l1.46 1.946a2 2 0 0 0-.139.266l-.81 1.89a5 5 0 1 0 3.974 4.513l1.983-.566a2 2 0 0 0 1.012-.673l3.123-3.904.399 1.196a5 5 0 1 0 1.897-.632L16.404 5.05A3 3 0 0 0 13.56 3zm5.146 10.6.905 2.716a1 1 0 0 0 1.898-.632l-.906-2.717a3.033 3.033 0 1 1-1.897.633m-9.297-1.71.48-1.119 2 2.667-.892.254a5 5 0 0 0-1.588-1.801M10.25 10l1.775 2.367L13.92 10zm-2.792 4.258a3 3 0 0 0-.42-.476l-.29.679zm-2.17 2.7a1 1 0 0 1-1.206-1.352l1.118-2.612a3.013 3.013 0 1 0 2.807 3.187z" clip-rule="evenodd"/></svg>
